X: 11414
T: East Village Days
R: slip jig
M: 9/8
K: Gmajor
B|:cBG E3 G2B|cBG A2d B2G|cBG ~E2E ~G2B|1 cBG A2A AGB:|2 cBG A2A AGF||
E3-EGF GEB|A2G ABd B2G|E3-EGF G2A|Bde B2G GFD|
E3-EGF GEB|A2G ABd Bgf|e3-edB deA-|AG~B-B2A Bd||

